X:18
T:Pride of Petravore, The
T:Eileen Oge, the Pride of Petravore
R:hornpipe
C:William Percy French (1854-1920)
D:De Dannan: Ballroom
Z:id:hn-hornpipe-18
M:C|
K:Em
B,2|E^DEF GFGA|BcBA GEFE|D^CDE FEFG|ABAG FEDB,|
E^DEF GFGA|BcBA GEFA|BB,~B,2 BAFG|Ee~e2 e2:|
|:z2|[e3c3][ec] efge|dBGA B2Bc|BF~F2 FGAB|AGED EGAB|
cdef gfge|dBGA B2GA|BABc B=AFG|Ee~e2 e2:|
